X: 387
T: A Thousand Farewells
R: slide
M: 12/8
K: Dmajor
|:FA|dAF EFE dBA A^GA|FEF BAF dAF EFA|
dAF ~E3 dBA ~A3|~F3 BAF EG/F/E D:|
|:F/G/A|dcd fed afd edB|AFE DFA BAF E2 A|
d3 fef afd edB|B/c/dB AFA B/c/dc d:|

